packages/axiom-materials/src/icon_svgs/instagram.svg

<svg height="16" viewBox="0 0 16 16" width="16" xmlns="http://www.w3.org/2000/svg" xmlns:xlink="http://www.w3.org/1999/xlink"><defs><path id="a" d="m8.00001588 0c-2.17268543 0-2.44512059.00920925-3.29840565.04814217-.85150673.03883765-1.43305527.17408667-1.94191421.37186335-.52607073.20441369-.97221148.47796031-1.41698671.92270379-.44474348.44477523-.7182901.89091598-.92270379 1.41698671-.19777668.50885894-.3330257 1.09040748-.37186335 1.94191421-.03893292.85328506-.04814217 1.12572022-.04814217 3.29840565 0 2.17265372.00920925 2.44508882.04814217 3.29837392.03883765.8515067.17408667 1.4330552.37186335 1.9419142.20441369.5260707.47796031.9722115.92270379 1.4169867.44477523.4447435.89091598.7182901 1.41698671.9227355.50885894.197745 1.09040748.332994 1.94191421.3718316.85328506.0389329 1.12572022.0481422 3.29840565.0481422 2.17265372 0 2.44508882-.0092093 3.29837392-.0481422.8515067-.0388376 1.4330552-.1740866 1.9419142-.3718316.5260707-.2044454.9722115-.477992 1.4169867-.9227355.4447435-.4447752.7182901-.890916.9227355-1.4169867.197745-.508859.332994-1.0904075.3718316-1.9419142.0389329-.8532851.0481422-1.1257202.0481422-3.29837392 0-2.17268543-.0092093-2.44512059-.0481422-3.29840565-.0388376-.85150673-.1740866-1.43305527-.3718316-1.94191421-.2044454-.52607073-.477992-.97221148-.9227355-1.41698671-.4447752-.44474348-.890916-.7182901-1.4169867-.92270379-.508859-.19777668-1.0904075-.3330257-1.9419142-.37186335-.8532851-.03893292-1.1257202-.04814217-3.29837392-.04814217zm0 1.44143887c2.13607072 0 2.38910292.0081613 3.23267062.04664963.7799921.03556678 1.2035861.16589361 1.4854845.27545198.3734194.14512515.6399162.31848143.9198458.59844276.2799613.27992959.4533176.54642636.5984427.91984575.1095584.28189846.2398852.70549241.275452 1.48548451.0384883.84356771.0466496 1.09659992.0466496 3.23270238 0 2.13607072-.0081613 2.38910292-.0466496 3.23267062-.0355668.7799921-.1658936 1.2035861-.275452 1.4854845-.1451251.3734194-.3184814.6399162-.5984427.9198458-.2799296.2799613-.5464264.4533176-.9198458.5984427-.2818984.1095584-.7054924.2398852-1.4854845.275452-.8434407.0384883-1.0964411.0466496-3.23267062.0466496-2.13626124 0-2.38922994-.0081613-3.23270238-.0466496-.7799921-.0355668-1.20358605-.1658936-1.48548451-.275452-.37341939-.1451251-.63991616-.3184814-.91984575-.5984427-.27992958-.2799296-.45331761-.5464264-.59844276-.9198458-.10955837-.2818984-.2398852-.7054924-.27545198-1.4854845-.03848833-.8435677-.04664963-1.0965999-.04664963-3.23267062 0-2.13610246.0081613-2.38913467.04664963-3.23270238.03556678-.7799921.16589361-1.20358605.27545198-1.48548451.14512515-.37341939.31848143-.63991616.59844276-.91984575.27992959-.27996133.54642636-.45331761.91984575-.59844276.28189846-.10955837.70549241-.2398852 1.48548451-.27545198.84356771-.03848833 1.09659992-.04664963 3.23270238-.04664963zm.06145612 9.30716913c-1.484096 0-2.687168-1.203072-2.687168-2.687136 0-1.484096 1.203072-2.687168 2.687168-2.687168 1.484064 0 2.687136 1.203072 2.687136 2.687168 0 1.484064-1.203072 2.687136-2.687136 2.687136zm0-6.826816c-2.286304 0-4.13968 1.853376-4.13968 4.13968 0 2.286272 1.853376 4.139648 4.13968 4.139648 2.286272 0 4.139648-1.853376 4.139648-4.139648 0-2.286304-1.853376-4.13968-4.139648-4.13968zm5.270592-.163552c0 .534272-.43312.96736-.967392.96736-.53424 0-.96736-.433088-.96736-.96736s.43312-.967392.96736-.967392c.534272 0 .967392.43312.967392.967392"/><radialGradient id="b" cx="25.155787%" cy="100%" gradientTransform="matrix(.7539893 -.6568867 .61452868 .70536981 -.552643 .459875)" r="131.97115%"><stop offset="0" stop-color="#fed170"/><stop offset=".132947977" stop-color="#f9a562"/><stop offset=".382270592" stop-color="#f05048"/><stop offset=".734233403" stop-color="#ce2f88"/><stop offset="1" stop-color="#ac32ae"/></radialGradient><radialGradient id="c" cx="4.815699%" cy="0%" gradientTransform="matrix(.97886074 .2045279 -.08518526 .40769256 .001018 -.009849)" r="158.036846%"><stop offset="0" stop-color="#4056ba"/><stop offset=".228975418" stop-color="#7040ba" stop-opacity=".892256"/><stop offset=".461668918" stop-color="#7040ba" stop-opacity=".47873"/><stop offset="1" stop-color="#e4644a" stop-opacity="0"/></radialGradient><path id="d" d="m0 0h16v16h-16z"/><mask id="e" fill="#fff"><use fill="#fff" fill-rule="evenodd" xlink:href="#a"/></mask></defs><g fill="none" fill-rule="evenodd"><use fill="#0a0b09" xlink:href="#a"/><g mask="url(#e)"><use fill="url(#b)" xlink:href="#d"/><use fill="url(#c)" xlink:href="#d"/></g></g></svg>

<?xml version="1.0" encoding="UTF-8"?>
<svg width="16px" height="16px" viewBox="0 0 16 16" version="1.1" xmlns="http://www.w3.org/2000/svg" xmlns:xlink="http://www.w3.org/1999/xlink">
    <!-- Generator: Sketch 50.2 (55047) - http://www.bohemiancoding.com/sketch -->
    <title>instagram</title>
    <desc>Created with Sketch.</desc>
    <defs>
        <path d="M8.00001588,0 C5.82733045,0 5.55489529,0.00920925451 4.70161023,0.0481421718 C3.8501035,0.086979821 3.26855496,0.222228838 2.75969602,0.420005518 C2.23362529,0.624419212 1.78748454,0.897965827 1.34270931,1.34270931 C0.897965827,1.78748454 0.624419212,2.23362529 0.420005518,2.75969602 C0.222228838,3.26855496 0.086979821,3.8501035 0.0481421718,4.70161023 C0.00920925451,5.55489529 0,5.82733045 0,8.00001588 C0,10.1726696 0.00920925451,10.4451047 0.0481421718,11.2983898 C0.086979821,12.1498965 0.222228838,12.731445 0.420005518,13.240304 C0.624419212,13.7663747 0.897965827,14.2125155 1.34270931,14.6572907 C1.78748454,15.1020342 2.23362529,15.3755808 2.75969602,15.5800262 C3.26855496,15.7777712 3.8501035,15.9130202 4.70161023,15.9518578 C5.55489529,15.9907907 5.82733045,16 8.00001588,16 C10.1726696,16 10.4451047,15.9907907 11.2983898,15.9518578 C12.1498965,15.9130202 12.731445,15.7777712 13.240304,15.5800262 C13.7663747,15.3755808 14.2125155,15.1020342 14.6572907,14.6572907 C15.1020342,14.2125155 15.3755808,13.7663747 15.5800262,13.240304 C15.7777712,12.731445 15.9130202,12.1498965 15.9518578,11.2983898 C15.9907907,10.4451047 16,10.1726696 16,8.00001588 C16,5.82733045 15.9907907,5.55489529 15.9518578,4.70161023 C15.9130202,3.8501035 15.7777712,3.26855496 15.5800262,2.75969602 C15.3755808,2.23362529 15.1020342,1.78748454 14.6572907,1.34270931 C14.2125155,0.897965827 13.7663747,0.624419212 13.240304,0.420005518 C12.731445,0.222228838 12.1498965,0.086979821 11.2983898,0.0481421718 C10.4451047,0.00920925451 10.1726696,0 8.00001588,0 Z M8.00001588,1.44143887 C10.1360866,1.44143887 10.3891188,1.44960017 11.2326865,1.4880885 C12.0126786,1.52365528 12.4362726,1.65398211 12.718171,1.76354048 C13.0915904,1.90866563 13.3580872,2.08202191 13.6380168,2.36198324 C13.9179781,2.64191283 14.0913344,2.9084096 14.2364595,3.28182899 C14.3460179,3.56372745 14.4763447,3.9873214 14.5119115,4.7673135 C14.5503998,5.61088121 14.5585611,5.86391342 14.5585611,8.00001588 C14.5585611,10.1360866 14.5503998,10.3891188 14.5119115,11.2326865 C14.4763447,12.0126786 14.3460179,12.4362726 14.2364595,12.718171 C14.0913344,13.0915904 13.9179781,13.3580872 13.6380168,13.6380168 C13.3580872,13.9179781 13.0915904,14.0913344 12.718171,14.2364595 C12.4362726,14.3460179 12.0126786,14.4763447 11.2326865,14.5119115 C10.3892458,14.5503998 10.1362454,14.5585611 8.00001588,14.5585611 C5.86375464,14.5585611 5.61078594,14.5503998 4.7673135,14.5119115 C3.9873214,14.4763447 3.56372745,14.3460179 3.28182899,14.2364595 C2.9084096,14.0913344 2.64191283,13.9179781 2.36198324,13.6380168 C2.08205366,13.3580872 1.90866563,13.0915904 1.76354048,12.718171 C1.65398211,12.4362726 1.52365528,12.0126786 1.4880885,11.2326865 C1.44960017,10.3891188 1.44143887,10.1360866 1.44143887,8.00001588 C1.44143887,5.86391342 1.44960017,5.61088121 1.4880885,4.7673135 C1.52365528,3.9873214 1.65398211,3.56372745 1.76354048,3.28182899 C1.90866563,2.9084096 2.08202191,2.64191283 2.36198324,2.36198324 C2.64191283,2.08202191 2.9084096,1.90866563 3.28182899,1.76354048 C3.56372745,1.65398211 3.9873214,1.52365528 4.7673135,1.4880885 C5.61088121,1.44960017 5.86391342,1.44143887 8.00001588,1.44143887 Z M8.061472,10.748608 C6.577376,10.748608 5.374304,9.545536 5.374304,8.061472 C5.374304,6.577376 6.577376,5.374304 8.061472,5.374304 C9.545536,5.374304 10.748608,6.577376 10.748608,8.061472 C10.748608,9.545536 9.545536,10.748608 8.061472,10.748608 Z M8.061472,3.921792 C5.775168,3.921792 3.921792,5.775168 3.921792,8.061472 C3.921792,10.347744 5.775168,12.20112 8.061472,12.20112 C10.347744,12.20112 12.20112,10.347744 12.20112,8.061472 C12.20112,5.775168 10.347744,3.921792 8.061472,3.921792 Z M13.332064,3.75824 C13.332064,4.292512 12.898944,4.7256 12.364672,4.7256 C11.830432,4.7256 11.397312,4.292512 11.397312,3.75824 C11.397312,3.223968 11.830432,2.790848 12.364672,2.790848 C12.898944,2.790848 13.332064,3.223968 13.332064,3.75824" id="ax-instagram-logo"></path>
        <radialGradient cx="25.1557871%" cy="100%" fx="25.1557871%" fy="100%" r="131.97115%" gradientTransform="translate(0.251558,1.000000),rotate(-41.062865),scale(1.000000,0.935517),translate(-0.251558,-1.000000)" id="ax-instagram-gradient-1">
            <stop stop-color="#FED170" offset="0%"></stop>
            <stop stop-color="#F9A562" offset="13.2947977%"></stop>
            <stop stop-color="#F05048" offset="38.2270592%"></stop>
            <stop stop-color="#CE2F88" offset="73.4233403%"></stop>
            <stop stop-color="#AC32AE" offset="100%"></stop>
        </radialGradient>
        <radialGradient cx="4.81569941%" cy="0%" fx="4.81569941%" fy="0%" r="158.036846%" gradientTransform="translate(0.048157,0.000000),rotate(11.801864),scale(1.000000,0.416497),translate(-0.048157,-0.000000)" id="ax-instagram-gradient-2">
            <stop stop-color="#4056BA" offset="0%"></stop>
            <stop stop-color="#7040BA" stop-opacity="0.892256177" offset="22.8975418%"></stop>
            <stop stop-color="#7040BA" stop-opacity="0.47873013" offset="46.1668918%"></stop>
            <stop stop-color="#E4644A" stop-opacity="0" offset="100%"></stop>
        </radialGradient>
        <rect id="ax-instagram-background" x="0" y="0" width="16" height="16"></rect>
    </defs>
    <g id="instagram" stroke="none" stroke-width="1" fill="none" fill-rule="evenodd">
        <g>
            <mask id="mask-2" fill="white">
                <use xlink:href="#ax-instagram-logo"></use>
            </mask>
            <use fill="#0A0B09" xlink:href="#ax-instagram-logo"></use>
            <g id="background" mask="url(#mask-2)">
                <use fill="url(#ax-instagram-gradient-1)" xlink:href="#ax-instagram-background"></use>
                <use fill="url(#ax-instagram-gradient-2)" xlink:href="#ax-instagram-background"></use>
            </g>
        </g>
    </g>
</svg>
